X: 21737
T: King Of The Cannibal Islands, The
R: slide
M: 12/8
K: Dmajor
|:A|f2 e d2 c d2 B A2 F|GFG EFG F2 G A2 F|
BGB dcB AFA d3|cde ABc d3- d2:|
e|f2 f fAd f2 f fAd|f2 f g2 f e3- eAc|
e2 e eAc e2 e eAc|e2 f e2 d cBA ABc|
ded cBA B2 c d2 A|ded cBA B2 c d3|
efe ecA e2 e ef^g|a2 A ABc d3 d2||

